dist/img/corp/common-icon8.svg

<svg width="51" height="50" viewBox="0 0 51 50" fill="none" xmlns="http://www.w3.org/2000/svg">
<path d="M22.1875 4.646L11.7917 8.56266C9.39583 9.4585 7.4375 12.2918 7.4375 14.8335V30.3127C7.4375 32.771 9.0625 36.0002 11.0417 37.4793L20 44.1668C22.9375 46.3752 27.7708 46.3752 30.7083 44.1668L39.6667 37.4793C41.6458 36.0002 43.2708 32.771 43.2708 30.3127V14.8335C43.2708 12.271 41.3125 9.43766 38.9167 8.54183L28.5208 4.646C26.75 4.00016 23.9167 4.00016 22.1875 4.646Z" stroke="#FC00FF" stroke-width="2" stroke-linecap="round" stroke-linejoin="round"/>
<path d="M19.1875 24.7297L22.5417 28.0838L31.5 19.1255" stroke="#FC00FF" stroke-width="2" stroke-linecap="round" stroke-linejoin="round"/>
</svg>

<svg width="51" height="50" viewBox="0 0 51 50" fill="none" xmlns="http://www.w3.org/2000/svg"><path d="M22.188 4.646L11.791 8.563c-2.396.896-4.354 3.729-4.354 6.27v15.48c0 2.458 1.625 5.687 3.604 7.166L20 44.167c2.938 2.208 7.77 2.208 10.708 0l8.959-6.688c1.979-1.479 3.604-4.708 3.604-7.166v-15.48c0-2.562-1.959-5.395-4.354-6.291L28.52 4.646c-1.77-.646-4.603-.646-6.333 0z" stroke="#FC00FF" stroke-width="2" stroke-linecap="round" stroke-linejoin="round"/><path d="M19.188 24.73l3.354 3.354 8.958-8.959" stroke="#FC00FF" stroke-width="2" stroke-linecap="round" stroke-linejoin="round"/></svg>
